lib/flags/kn-saint-kitts-and-nevis.svg

<svg xmlns="http://www.w3.org/2000/svg" fill="none" aria-hidden="true" viewBox="0 0 42 30"><g id="Country=KN - Saint Kitts and Nevis, Size=sm (36x24)" filter="url(#filter0_dd_91_27022)"><g clip-path="url(#clip0_91_27022)"><g id="flag"><mask id="mask0_91_27022" width="36" height="24" x="3" y="2" maskUnits="userSpaceOnUse" style="mask-type:alpha"><rect id="mask" width="36" height="24" x="3" y="2" fill="white"/></mask><g mask="url(#mask0_91_27022)"><g id="contents"><path id="background" fill="#C51918" fill-rule="evenodd" d="M3 2V26H39V2H3Z" clip-rule="evenodd"/><path id="left" fill="#5EAA22" fill-rule="evenodd" d="M3 2V26L39 2H3Z" clip-rule="evenodd"/><path id="Path 14" fill="#272727" stroke="#FFD018" stroke-width="2.5" d="M3.88211 30.0052L4.56862 30.686L5.40009 30.1927L46.1936 5.98918L47.5836 5.16452L46.436 4.02656L40.4501 -1.90909L39.7636 -2.58983L38.9321 -2.09651L-1.86146 22.107L-3.25138 22.9316L-2.10378 24.0696L3.88211 30.0052Z"/><path id="Star 5" fill="#F7FCFF" fill-rule="evenodd" d="M16.5994 18.9185L15.3747 20.8131L14.5926 18.6788L12.1602 17.9915L14.1871 16.8909L13.9429 14.6585L15.9433 16.0256L18.0153 15.0047L17.4342 17.2787L19.0965 18.9793L16.5994 18.9185Z" clip-rule="evenodd"/><path id="Star 5_2" fill="#F7FCFF" fill-rule="evenodd" d="M27.8494 12.3652L26.6247 14.2599L25.8426 12.1256L23.4102 11.4383L25.4371 10.3377L25.1929 8.10525L27.1933 9.47235L29.2653 8.45145L28.6842 10.7255L30.3465 12.4261L27.8494 12.3652Z" clip-rule="evenodd"/></g></g></g></g></g><defs><filter id="filter0_dd_91_27022" width="42" height="30" x="0" y="0" color-interpolation-filters="sRGB" filterUnits="userSpaceOnUse"><feFlood flood-opacity="0" result="BackgroundImageFix"/><feColorMatrix in="SourceAlpha" result="hardAlpha" values="0 0 0 0 0 0 0 0 0 0 0 0 0 0 0 0 0 0 127 0"/><feOffset dy="1"/><feGaussianBlur stdDeviation="1"/><feColorMatrix values="0 0 0 0 0.0627451 0 0 0 0 0.0941176 0 0 0 0 0.156863 0 0 0 0.06 0"/><feBlend in2="BackgroundImageFix" result="effect1_dropShadow_91_27022"/><feColorMatrix in="SourceAlpha" result="hardAlpha" values="0 0 0 0 0 0 0 0 0 0 0 0 0 0 0 0 0 0 127 0"/><feOffset dy="1"/><feGaussianBlur stdDeviation="1.5"/><feColorMatrix values="0 0 0 0 0.0627451 0 0 0 0 0.0941176 0 0 0 0 0.156863 0 0 0 0.1 0"/><feBlend in2="effect1_dropShadow_91_27022" result="effect2_dropShadow_91_27022"/><feBlend in="SourceGraphic" in2="effect2_dropShadow_91_27022" result="shape"/></filter><clipPath id="clip0_91_27022"><rect width="36" height="24" x="3" y="2" fill="white" rx="2"/></clipPath></defs></svg>

<svg xmlns="http://www.w3.org/2000/svg" fill="none" aria-hidden="true" viewBox="0 0 42 30"><g filter="url(#a)"><g clip-path="url(#b)"><mask id="c" width="36" height="24" x="3" y="2" maskUnits="userSpaceOnUse" style="mask-type:alpha"><path fill="#fff" d="M3 2h36v24H3z"/></mask><g mask="url(#c)"><path fill="#C51918" fill-rule="evenodd" d="M3 2v24h36V2H3Z" clip-rule="evenodd"/><path fill="#5EAA22" fill-rule="evenodd" d="M3 2v24L39 2H3Z" clip-rule="evenodd"/><path fill="#272727" stroke="#FFD018" stroke-width="2.5" d="m3.882 30.005.687.681.831-.493L46.194 5.989l1.39-.824-1.148-1.138L40.45-1.91l-.686-.68-.832.492L-1.86 22.107l-1.39.825 1.147 1.138 5.986 5.935Z"/><path fill="#F7FCFF" fill-rule="evenodd" d="m16.6 18.919-1.225 1.894-.782-2.134-2.433-.688 2.027-1.1-.244-2.232 2 1.367 2.072-1.021-.58 2.274 1.662 1.7-2.498-.06Zm11.25-6.554-1.225 1.895-.782-2.134-2.433-.688 2.027-1.1-.244-2.233 2 1.367 2.072-1.02-.58 2.274 1.662 1.7-2.498-.06Z" clip-rule="evenodd"/></g></g></g><defs><clipPath id="b"><rect width="36" height="24" x="3" y="2" fill="#fff" rx="2"/></clipPath><filter id="a" width="42" height="30" x="0" y="0" color-interpolation-filters="sRGB" filterUnits="userSpaceOnUse"><feFlood flood-opacity="0" result="BackgroundImageFix"/><feColorMatrix in="SourceAlpha" result="hardAlpha" values="0 0 0 0 0 0 0 0 0 0 0 0 0 0 0 0 0 0 127 0"/><feOffset dy="1"/><feGaussianBlur stdDeviation="1"/><feColorMatrix values="0 0 0 0 0.0627451 0 0 0 0 0.0941176 0 0 0 0 0.156863 0 0 0 0.06 0"/><feBlend in2="BackgroundImageFix" result="effect1_dropShadow_91_27022"/><feColorMatrix in="SourceAlpha" result="hardAlpha" values="0 0 0 0 0 0 0 0 0 0 0 0 0 0 0 0 0 0 127 0"/><feOffset dy="1"/><feGaussianBlur stdDeviation="1.5"/><feColorMatrix values="0 0 0 0 0.0627451 0 0 0 0 0.0941176 0 0 0 0 0.156863 0 0 0 0.1 0"/><feBlend in2="effect1_dropShadow_91_27022" result="effect2_dropShadow_91_27022"/><feBlend in="SourceGraphic" in2="effect2_dropShadow_91_27022" result="shape"/></filter></defs></svg>
